assets/svg/1F4C1.svg

<svg xmlns="http://www.w3.org/2000/svg" viewBox="0 0 64 64" enable-background="new 0 0 64 64"><g transform="translate(4)"><g fill="#243438"><path d="m25.19 8.852l-.49-6.21-23.02 5.01v49.708c0 1.777 1.158 5.129 5.542 5.129 1.724 0 3.822-.531 6.201-1.573l40.887-16.223v-43.19l-29.12 7.352"/><path d="m53.864-.118c-9.05 2.284-18.11 4.572-27.16 6.854-.109-1.362-.218-2.729-.323-4.094-.093-1.124-1-1.866-2.128-1.623-7.674 1.669-15.346 3.337-23.02 5.01-.724.158-1.232.903-1.232 1.622 0 11.694 0 23.393 0 35.09 0 4.802 0 9.603 0 14.407 0 2.787 1.581 5.567 4.31 6.517 3.472 1.207 6.932-.086 10.169-1.374 13.433-5.324 26.856-10.647 40.28-15.977.708-.28 1.232-.81 1.232-1.622 0-14.393 0-28.791 0-43.19 0-1.106-1.072-1.884-2.129-1.617m-49.18 60.21c-1.504-.915-1.325-2.885-1.325-4.382 0-2.409 0-4.818 0-7.229 0-13.163 0-26.327 0-39.49 6.607-1.434 13.212-2.871 19.819-4.31.109 1.393.22 2.778.33 4.166.025.348.141.633.31.868.339.573.979.963 1.815.752 9-2.272 17.998-4.542 26.998-6.814 0 13.303 0 26.603 0 39.903-10.688 4.238-21.377 8.478-32.06 12.718-3.947 1.566-12.04 6.161-15.885 3.818"/></g><path d="m3.149 16.517v40.23c0 0 0 7.02 10.181 2.571l39.513-15.672v-40.462l-28.417 7.171-.478-6.167-20.799 4.526v7.798" fill="#808284"/><path d="m5.083 19.325l-1.934 38.701c0 0 0 6.748 10.181 2.474l39.513-15.08 1.933-38.924-30.786 7.424 0 0-18.907 4.275v1.125" fill="#aeaeae"/><path d="m27.18 35.916c-2.541-6.667-3.961-13.871-.641-20.589.399-.81.833-1.585 1.305-2.33l-3.853.928-18.906 4.275v1.125l-1.934 38.701c0 0 0 6.748 10.181 2.474l23.335-8.904c-4.221-4.454-7.407-10.217-9.487-15.68" fill="#c3c3c3"/></g></svg>

<?xml version="1.0" encoding="UTF-8" standalone="no"?>
<!-- Generator: Adobe Illustrator 16.0.0, SVG Export Plug-In . SVG Version: 6.00 Build 0)  -->

<svg
   xmlns:dc="http://purl.org/dc/elements/1.1/"
   xmlns:cc="http://creativecommons.org/ns#"
   xmlns:rdf="http://www.w3.org/1999/02/22-rdf-syntax-ns#"
   xmlns:svg="http://www.w3.org/2000/svg"
   xmlns="http://www.w3.org/2000/svg"
   xmlns:sodipodi="http://sodipodi.sourceforge.net/DTD/sodipodi-0.dtd"
   xmlns:inkscape="http://www.inkscape.org/namespaces/inkscape"
   version="1.1"
   id="Layer_1"
   x="0px"
   y="0px"
   width="64px"
   height="64px"
   viewBox="0 0 64 64"
   enable-background="new 0 0 64 64"
   xml:space="preserve"
   inkscape:version="0.48.5 r10040"
   sodipodi:docname="1F4C1.svg"><metadata
   id="metadata34543"><rdf:RDF><cc:Work
       rdf:about=""><dc:format>image/svg+xml</dc:format><dc:type
         rdf:resource="http://purl.org/dc/dcmitype/StillImage" /></cc:Work></rdf:RDF></metadata><defs
   id="defs34541" /><sodipodi:namedview
   pagecolor="#ffffff"
   bordercolor="#666666"
   borderopacity="1"
   objecttolerance="10"
   gridtolerance="10"
   guidetolerance="10"
   inkscape:pageopacity="0"
   inkscape:pageshadow="2"
   inkscape:window-width="640"
   inkscape:window-height="480"
   id="namedview34539"
   showgrid="false"
   inkscape:zoom="3.6875"
   inkscape:cx="32"
   inkscape:cy="32"
   inkscape:window-x="470"
   inkscape:window-y="251"
   inkscape:window-maximized="0"
   inkscape:current-layer="Layer_1" />
<g
   id="g34523"
   transform="translate(4,0)">
	<path
   d="M 25.189,8.852 24.699,2.642 1.68,7.647 v 49.708 c 0,1.777 1.158,5.129 5.542,5.129 1.724,0 3.822,-0.531 6.201,-1.573 L 54.31,44.688 V 1.5 L 25.189,8.852 z"
   id="path34525"
   inkscape:connector-curvature="0"
   style="fill:#243438" />
	<path
   d="M 52.633,3.658 C 43.633,5.93 34.635,8.2 25.635,10.472 24.799,10.683 24.159,10.293 23.82,9.72 23.651,9.486 23.534,9.2 23.509,8.852 23.4,7.464 23.288,6.079 23.179,4.686 16.572,6.125 9.968,7.562 3.36,8.996 c 0,13.163 0,26.327 0,39.49 0,2.411 0,4.82 0,7.229 0,1.497 -0.179,3.467 1.325,4.382 3.848,2.344 11.938,-2.252 15.886,-3.818 10.685,-4.24 21.374,-8.479 32.062,-12.718 0,-13.3 0,-26.601 0,-39.903 z"
   id="path34527"
   inkscape:connector-curvature="0"
   style="fill:none" />
	<g
   id="g34529">
		<path
   d="M 53.864,-0.118 C 44.811,2.166 35.756,4.454 26.702,6.736 26.593,5.374 26.484,4.007 26.379,2.642 26.286,1.518 25.377,0.776 24.251,1.019 16.577,2.688 8.905,4.356 1.232,6.025 0.508,6.183 0,6.928 0,7.647 c 0,11.694 0,23.393 0,35.09 0,4.802 0,9.603 0,14.407 0,2.787 1.581,5.567 4.31,6.517 3.472,1.207 6.932,-0.086 10.169,-1.374 13.433,-5.324 26.856,-10.647 40.282,-15.977 0.708,-0.28 1.232,-0.81 1.232,-1.622 0,-14.393 0,-28.791 0,-43.189 0,-1.106 -1.072,-1.884 -2.129,-1.617 z M 4.686,60.097 C 3.182,59.182 3.361,57.212 3.361,55.715 c 0,-2.409 0,-4.818 0,-7.229 0,-13.163 0,-26.327 0,-39.49 6.607,-1.434 13.212,-2.871 19.819,-4.31 0.109,1.393 0.22,2.778 0.33,4.166 0.025,0.348 0.141,0.633 0.31,0.868 0.339,0.573 0.979,0.963 1.815,0.752 9,-2.272 17.998,-4.542 26.998,-6.814 0,13.303 0,26.603 0,39.903 C 41.945,47.799 31.256,52.039 20.571,56.279 16.624,57.845 8.533,62.44 4.686,60.097 z"
   id="path34531"
   inkscape:connector-curvature="0"
   style="fill:#243438" />
	</g>
	<path
   d="m 3.149,16.517 v 40.235 c 0,0 0,7.018 10.181,2.571 L 52.843,43.651 V 3.189 L 24.426,10.36 23.948,4.193 3.149,8.719 v 7.798 z"
   id="path34533"
   inkscape:connector-curvature="0"
   style="fill:#808284" />
	<path
   d="M 5.083,19.325 3.149,58.026 c 0,0 0,6.748 10.181,2.474 L 52.843,45.425 54.776,6.501 23.99,13.925 l 0,0 L 5.083,18.2 v 1.125 z"
   id="path34535"
   inkscape:connector-curvature="0"
   style="fill:#aeaeae" />
	<path
   d="m 27.178,35.916 c -2.541,-6.667 -3.961,-13.871 -0.641,-20.589 0.399,-0.81 0.833,-1.585 1.305,-2.33 L 23.989,13.925 5.083,18.2 v 1.125 L 3.149,58.026 c 0,0 0,6.748 10.181,2.474 L 36.665,51.596 C 32.444,47.142 29.258,41.379 27.178,35.916 z"
   id="path34537"
   inkscape:connector-curvature="0"
   style="fill:#c3c3c3" />
</g>
</svg>
